.local/share/icons/Gruvbox-Plus-Dark/mimetypes/scalable/application-msword-template.svg

<svg width="256" height="256" viewBox="0 0 256 256" fill="none" xmlns="http://www.w3.org/2000/svg">
<g clip-path="url(#clip0)">
<g opacity="0.4" filter="url(#filter0_f)">
<path d="M55.0839 15.5636H155.608L216.009 75.7129L216.011 224.609C216.011 233.52 208.749 240.737 199.838 240.737H55.0838C46.1734 240.737 39 233.564 39 224.654V31.6474C39 22.737 46.1734 15.5636 55.0838 15.5636H55.0839Z" fill="#282828"/>
</g>
<path d="M55.0839 15H155.608L216.009 75.1493L216.011 224.045C216.011 232.956 208.749 240.174 199.838 240.174H55.0838C46.1734 240.174 39 233 39 224.09V31.0838C39 22.1734 46.1734 15 55.0838 15H55.0839Z" fill="#ebdbb2"/>
<path opacity="0.2" d="M199.838 240.174C208.749 240.174 216.011 232.956 216.011 224.046L216.01 186.5H39V224.09C39 233 46.1734 240.174 55.0838 240.174H199.838Z" fill="url(#paint0_linear)"/>
<path fill-rule="evenodd" clip-rule="evenodd" d="M155.608 20.3191H55.0839C49.1112 20.3191 44.3191 25.1111 44.3191 31.0838V224.09C44.3191 230.063 49.1111 234.855 55.0838 234.855H199.838C205.83 234.855 210.692 229.999 210.692 224.046V75.1493L155.608 20.3191ZM155.608 15H55.0839C46.1735 15 39 22.1734 39 31.0838V224.09C39 233 46.1734 240.174 55.0838 240.174H199.838C208.749 240.174 216.011 232.956 216.011 224.045L216.009 75.1493L155.608 15Z" fill="url(#paint1_linear)"/>
<path d="M89.357 197V225H97.837C108.117 225 111.477 217.4 111.477 211C111.477 204.04 107.797 197 97.997 197H89.357ZM98.517 220.48H94.157V201.52H98.957C104.277 201.52 106.517 206.28 106.517 211C106.517 215.4 104.477 220.48 98.517 220.48ZM128.567 225.48C137.607 225.48 140.847 217.92 140.847 211C140.847 204.08 137.607 196.52 128.567 196.52C119.567 196.52 116.287 204.08 116.287 211C116.287 217.92 119.567 225.48 128.567 225.48ZM128.567 220.88C123.127 220.88 121.247 215.56 121.247 211C121.247 206.68 123.127 201.12 128.567 201.12C134.007 201.12 135.887 206.4 135.887 211C135.887 215.28 133.967 220.88 128.567 220.88ZM157.382 225.48C162.382 225.48 165.462 222.8 167.182 218.92L162.742 217.24C161.462 219.36 159.902 220.84 157.382 220.84C152.662 220.84 150.622 215.64 150.622 211C150.622 206.6 152.222 201.12 157.382 201.12C160.022 201.12 161.422 202.32 162.822 204.44L167.142 202.48C165.942 199.52 162.702 196.52 157.382 196.52C148.742 196.52 145.662 204.56 145.662 211C145.662 217.92 148.662 225.48 157.382 225.48Z" fill="url(#paint2_linear)"/>
<path d="M78 58.0009L78.0204 97.9835H88.0176V67.997H118.012V58H78V58.0009ZM178 58.0009L177.98 97.9835H167.982V67.997H137.988V58H178V58.0009ZM178 157.999L177.98 118.016H167.982V148.004H137.988V158H178V157.999ZM78 157.999L78.0204 118.016H88.0176V148.004H118.012V158H78V157.999Z" fill="url(#paint3_linear)"/>
<path opacity="0.25" d="M155.608 17V61.2306C155.608 70.141 162.867 77.1605 171.777 77.1605L216.009 77.1493V75.1493L155.608 17Z" fill="#282828"/>
<path d="M155.608 15V59.2306C155.608 68.141 162.867 75.1605 171.777 75.1605L216.009 75.1493L155.608 15Z" fill="url(#paint4_linear)"/>
</g>
<defs>
<filter id="filter0_f" x="23.8778" y="0.441412" width="207.255" height="255.418" filterUnits="userSpaceOnUse" color-interpolation-filters="sRGB">
<feFlood flood-opacity="0" result="BackgroundImageFix"/>
<feBlend mode="normal" in="SourceGraphic" in2="BackgroundImageFix" result="shape"/>
<feGaussianBlur stdDeviation="7.5611" result="effect1_foregroundBlur"/>
</filter>
<linearGradient id="paint0_linear" x1="39" y1="186.5" x2="39" y2="240.174" gradientUnits="userSpaceOnUse">
<stop offset="1e-07" stop-color="#076678"/>
<stop offset="1" stop-color="#458588"/>
</linearGradient>
<linearGradient id="paint1_linear" x1="39" y1="15" x2="39" y2="240.174" gradientUnits="userSpaceOnUse">
<stop offset="1e-07" stop-color="#076678"/>
<stop offset="1" stop-color="#458588"/>
</linearGradient>
<linearGradient id="paint2_linear" x1="39" y1="186" x2="39" y2="262" gradientUnits="userSpaceOnUse">
<stop offset="1e-07" stop-color="#076678"/>
<stop offset="1" stop-color="#458588"/>
</linearGradient>
<linearGradient id="paint3_linear" x1="78" y1="58" x2="78" y2="158" gradientUnits="userSpaceOnUse">
<stop offset="1e-07" stop-color="#076678"/>
<stop offset="1" stop-color="#458588"/>
</linearGradient>
<linearGradient id="paint4_linear" x1="155.608" y1="15" x2="155.608" y2="75.1605" gradientUnits="userSpaceOnUse">
<stop offset="1e-07" stop-color="#076678"/>
<stop offset="1" stop-color="#458588"/>
</linearGradient>
<clipPath id="clip0">
<rect width="256" height="256" fill="#ebdbb2"/>
</clipPath>
</defs>
</svg>

<svg width="256" height="256" fill="none" version="1.1" viewBox="0 0 256 256" xmlns="http://www.w3.org/2000/svg">
  <path d="m55.08 15h100.5l60.4 60.15 2e-3 148.9c0 8.911-7.262 16.13-16.17 16.13h-144.8c-8.91 0-16.08-7.174-16.08-16.08v-193c0-8.91 7.173-16.08 16.08-16.08h1e-4z" fill="#ebdbb2"/>
  <path d="m199.8 240.2c8.911 0 16.17-7.218 16.17-16.13l-1e-3 -37.55h-177v37.59c0 8.91 7.173 16.08 16.08 16.08h144.8z" fill="url(#paint0_linear)" opacity=".2"/>
  <path d="m155.6 20.32h-100.5c-5.973 0-10.76 4.792-10.76 10.76v193c0 5.973 4.792 10.76 10.76 10.76h144.8c5.992 0 10.85-4.856 10.85-10.81v-148.9l-55.08-54.83zm0-5.319h-100.5c-8.91 0-16.08 7.173-16.08 16.08v193c0 8.91 7.173 16.08 16.08 16.08h144.8c8.911 0 16.17-7.218 16.17-16.13l-2e-3 -148.9-60.4-60.15z" clip-rule="evenodd" fill="url(#paint1_linear)" fill-rule="evenodd"/>
  <path d="m89.36 197v28h8.48c10.28 0 13.64-7.6 13.64-14 0-6.96-3.68-14-13.48-14h-8.64zm9.16 23.48h-4.36v-18.96h4.8c5.32 0 7.56 4.76 7.56 9.48 0 4.4-2.04 9.48-8 9.48zm30.05 5c9.04 0 12.28-7.56 12.28-14.48s-3.24-14.48-12.28-14.48c-9 0-12.28 7.56-12.28 14.48s3.28 14.48 12.28 14.48zm0-4.6c-5.44 0-7.32-5.32-7.32-9.88 0-4.32 1.88-9.88 7.32-9.88s7.32 5.28 7.32 9.88c0 4.28-1.92 9.88-7.32 9.88zm28.82 4.6c5 0 8.08-2.68 9.8-6.56l-4.44-1.68c-1.28 2.12-2.84 3.6-5.36 3.6-4.72 0-6.76-5.2-6.76-9.84 0-4.4 1.6-9.88 6.76-9.88 2.64 0 4.04 1.2 5.44 3.32l4.32-1.96c-1.2-2.96-4.44-5.96-9.76-5.96-8.64 0-11.72 8.04-11.72 14.48 0 6.92 3 14.48 11.72 14.48z" fill="url(#paint2_linear)"/>
  <path d="m78 58 0.0204 39.98h9.997v-29.99h29.99v-9.997h-40.01v9e-4zm100 0-0.02 39.98h-9.998v-29.99h-29.99v-9.997h40.01v9e-4zm0 100-0.02-39.98h-9.998v29.99h-29.99v9.996h40.01v-1e-3zm-100 0 0.0204-39.98h9.997v29.99h29.99v9.996h-40.01v-1e-3z" fill="url(#paint3_linear)"/>
  <path d="m155.6 17v44.23c0 8.91 7.259 15.93 16.17 15.93l44.23-0.0112v-2l-60.4-58.15z" fill="#282828" opacity=".25"/>
  <path d="m155.6 15v44.23c0 8.91 7.259 15.93 16.17 15.93l44.23-0.0112-60.4-60.15z" fill="url(#paint4_linear)"/>
  <defs>
    <linearGradient id="paint0_linear" x1="39" x2="39" y1="186.5" y2="240.2" gradientUnits="userSpaceOnUse">
      <stop stop-color="#076678" offset="1e-7"/>
      <stop stop-color="#458588" offset="1"/>
    </linearGradient>
    <linearGradient id="paint1_linear" x1="39" x2="39" y1="15" y2="240.2" gradientUnits="userSpaceOnUse">
      <stop stop-color="#076678" offset="1e-7"/>
      <stop stop-color="#458588" offset="1"/>
    </linearGradient>
    <linearGradient id="paint2_linear" x1="39" x2="39" y1="186" y2="262" gradientUnits="userSpaceOnUse">
      <stop stop-color="#076678" offset="1e-7"/>
      <stop stop-color="#458588" offset="1"/>
    </linearGradient>
    <linearGradient id="paint3_linear" x1="78" x2="78" y1="58" y2="158" gradientUnits="userSpaceOnUse">
      <stop stop-color="#076678" offset="1e-7"/>
      <stop stop-color="#458588" offset="1"/>
    </linearGradient>
    <linearGradient id="paint4_linear" x1="155.6" x2="155.6" y1="15" y2="75.16" gradientUnits="userSpaceOnUse">
      <stop stop-color="#076678" offset="1e-7"/>
      <stop stop-color="#458588" offset="1"/>
    </linearGradient>
  </defs>
</svg>
